images/28227.svg

<?xml version="1.0" encoding="UTF-8"?>
<svg xmlns="http://www.w3.org/2000/svg" xmlns:xlink="http://www.w3.org/1999/xlink" width="300pt" height="300pt" viewBox="0 0 300 300" version="1.1">
<defs>
<g>
<symbol overflow="visible" id="glyph0-0">
<path style="stroke:none;" d="M 0.796875 2.828125 L 0.796875 -11.28125 L 8.796875 -11.28125 L 8.796875 2.828125 Z M 1.703125 1.9375 L 7.90625 1.9375 L 7.90625 -10.390625 L 1.703125 -10.390625 Z M 1.703125 1.9375 "/>
</symbol>
<symbol overflow="visible" id="glyph0-1">
<path style="stroke:none;" d="M 6.3125 -10.59375 C 5.164062 -10.59375 4.253906 -10.164062 3.578125 -9.3125 C 2.898438 -8.457031 2.5625 -7.296875 2.5625 -5.828125 C 2.5625 -4.359375 2.898438 -3.195312 3.578125 -2.34375 C 4.253906 -1.488281 5.164062 -1.0625 6.3125 -1.0625 C 7.457031 -1.0625 8.363281 -1.488281 9.03125 -2.34375 C 9.695312 -3.195312 10.03125 -4.359375 10.03125 -5.828125 C 10.03125 -7.296875 9.695312 -8.457031 9.03125 -9.3125 C 8.363281 -10.164062 7.457031 -10.59375 6.3125 -10.59375 Z M 6.3125 -11.875 C 7.945312 -11.875 9.253906 -11.328125 10.234375 -10.234375 C 11.210938 -9.140625 11.703125 -7.671875 11.703125 -5.828125 C 11.703125 -3.984375 11.210938 -2.507812 10.234375 -1.40625 C 9.253906 -0.3125 7.945312 0.234375 6.3125 0.234375 C 4.664062 0.234375 3.351562 -0.3125 2.375 -1.40625 C 1.394531 -2.507812 0.90625 -3.984375 0.90625 -5.828125 C 0.90625 -7.671875 1.394531 -9.140625 2.375 -10.234375 C 3.351562 -11.328125 4.664062 -11.875 6.3125 -11.875 Z M 6.3125 -11.875 "/>
</symbol>
<symbol overflow="visible" id="glyph0-2">
<path style="stroke:none;" d="M 1.578125 -11.671875 L 3.703125 -11.671875 L 8.875 -1.90625 L 8.875 -11.671875 L 10.40625 -11.671875 L 10.40625 0 L 8.28125 0 L 3.109375 -9.765625 L 3.109375 0 L 1.578125 0 Z M 1.578125 -11.671875 "/>
</symbol>
</g>
</defs>
<g id="surface16077">
<rect x="0" y="0" width="300" height="300" style="fill:rgb(100%,100%,100%);fill-opacity:1;stroke:none;"/>
<path style="fill:none;stroke-width:1.2;stroke-linecap:butt;stroke-linejoin:miter;stroke:rgb(100%,0%,0%);stroke-opacity:1;stroke-miterlimit:10;" d="M 33.296875 188.1875 L 48.542969 176.640625 "/>
<path style="fill:none;stroke-width:1.2;stroke-linecap:butt;stroke-linejoin:miter;stroke:rgb(0%,0%,0%);stroke-opacity:1;stroke-miterlimit:10;" d="M 48.542969 176.640625 L 63.785156 165.09375 "/>
<path style="fill:none;stroke-width:1.2;stroke-linecap:butt;stroke-linejoin:miter;stroke:rgb(100%,0%,0%);stroke-opacity:1;stroke-miterlimit:10;" d="M 27.863281 181.015625 L 43.105469 169.464844 "/>
<path style="fill:none;stroke-width:1.2;stroke-linecap:butt;stroke-linejoin:miter;stroke:rgb(0%,0%,0%);stroke-opacity:1;stroke-miterlimit:10;" d="M 43.105469 169.464844 L 58.351562 157.917969 "/>
<path style=" stroke:none;fill-rule:nonzero;fill:rgb(100%,100%,100%);fill-opacity:1;" d="M 17.578125 175.101562 L 30.578125 175.101562 L 30.578125 194.101562 L 17.578125 194.101562 Z M 17.578125 175.101562 "/>
<g style="fill:rgb(100%,0%,0%);fill-opacity:1;">
  <use xlink:href="#glyph0-1" x="17.578125" y="189.953125"/>
</g>
<path style="fill:none;stroke-width:1.2;stroke-linecap:butt;stroke-linejoin:miter;stroke:rgb(0%,0%,0%);stroke-opacity:1;stroke-miterlimit:10;" d="M 61.070312 161.503906 L 79.371094 167.050781 "/>
<path style="fill:none;stroke-width:1.2;stroke-linecap:butt;stroke-linejoin:miter;stroke:rgb(0%,0%,100%);stroke-opacity:1;stroke-miterlimit:10;" d="M 79.371094 167.050781 L 97.675781 172.597656 "/>
<path style="fill:none;stroke-width:1.2;stroke-linecap:butt;stroke-linejoin:miter;stroke:rgb(0%,0%,100%);stroke-opacity:1;stroke-miterlimit:10;" d="M 60.304688 123.261719 L 60.6875 142.382812 "/>
<path style="fill:none;stroke-width:1.2;stroke-linecap:butt;stroke-linejoin:miter;stroke:rgb(0%,0%,0%);stroke-opacity:1;stroke-miterlimit:10;" d="M 60.6875 142.382812 L 61.070312 161.503906 "/>
<path style="fill:none;stroke-width:1.2;stroke-linecap:butt;stroke-linejoin:miter;stroke:rgb(0%,0%,100%);stroke-opacity:1;stroke-miterlimit:10;" d="M 97.675781 172.597656 L 108.605469 156.902344 "/>
<path style="fill:none;stroke-width:1.2;stroke-linecap:butt;stroke-linejoin:miter;stroke:rgb(0%,0%,0%);stroke-opacity:1;stroke-miterlimit:10;" d="M 108.605469 156.902344 L 119.535156 141.207031 "/>
<path style="fill:none;stroke-width:1.2;stroke-linecap:butt;stroke-linejoin:miter;stroke:rgb(0%,0%,100%);stroke-opacity:1;stroke-miterlimit:10;" d="M 97.675781 172.597656 L 103.949219 190.664062 "/>
<path style="fill:none;stroke-width:1.2;stroke-linecap:butt;stroke-linejoin:miter;stroke:rgb(0%,0%,0%);stroke-opacity:1;stroke-miterlimit:10;" d="M 103.949219 190.664062 L 110.21875 208.730469 "/>
<path style=" stroke:none;fill-rule:nonzero;fill:rgb(100%,100%,100%);fill-opacity:1;" d="M 91.675781 163.097656 L 103.675781 163.097656 L 103.675781 182.097656 L 91.675781 182.097656 Z M 91.675781 163.097656 "/>
<g style="fill:rgb(0%,0%,100%);fill-opacity:1;">
  <use xlink:href="#glyph0-2" x="91.675781" y="177.949219"/>
</g>
<path style="fill:none;stroke-width:1.2;stroke-linecap:butt;stroke-linejoin:miter;stroke:rgb(0%,0%,0%);stroke-opacity:1;stroke-miterlimit:10;" d="M 119.535156 141.207031 L 157.488281 136.453125 "/>
<path style="fill:none;stroke-width:1.2;stroke-linecap:butt;stroke-linejoin:miter;stroke:rgb(0%,0%,0%);stroke-opacity:1;stroke-miterlimit:10;" d="M 122.210938 131.800781 L 152.574219 127.996094 "/>
<path style="fill:none;stroke-width:1.2;stroke-linecap:butt;stroke-linejoin:miter;stroke:rgb(0%,0%,0%);stroke-opacity:1;stroke-miterlimit:10;" d="M 96.441406 110.71875 L 119.535156 141.207031 "/>
<path style="fill:none;stroke-width:1.2;stroke-linecap:butt;stroke-linejoin:miter;stroke:rgb(0%,0%,0%);stroke-opacity:1;stroke-miterlimit:10;" d="M 157.488281 136.453125 L 172.347656 101.203125 "/>
<path style="fill:none;stroke-width:1.2;stroke-linecap:butt;stroke-linejoin:miter;stroke:rgb(0%,0%,0%);stroke-opacity:1;stroke-miterlimit:10;" d="M 172.347656 101.203125 L 191.324219 98.828125 "/>
<path style="fill:none;stroke-width:1.2;stroke-linecap:butt;stroke-linejoin:miter;stroke:rgb(0%,0%,100%);stroke-opacity:1;stroke-miterlimit:10;" d="M 191.324219 98.828125 L 210.300781 96.449219 "/>
<path style="fill:none;stroke-width:1.2;stroke-linecap:butt;stroke-linejoin:miter;stroke:rgb(0%,0%,0%);stroke-opacity:1;stroke-miterlimit:10;" d="M 172.347656 101.203125 L 149.25 70.714844 "/>
<path style="fill:none;stroke-width:1.2;stroke-linecap:butt;stroke-linejoin:miter;stroke:rgb(0%,0%,0%);stroke-opacity:1;stroke-miterlimit:10;" d="M 162.863281 103.589844 L 144.386719 79.199219 "/>
<path style="fill:none;stroke-width:1.2;stroke-linecap:butt;stroke-linejoin:miter;stroke:rgb(0%,0%,100%);stroke-opacity:1;stroke-miterlimit:10;" d="M 210.300781 96.449219 L 219.53125 79.699219 "/>
<path style="fill:none;stroke-width:1.2;stroke-linecap:butt;stroke-linejoin:miter;stroke:rgb(0%,0%,0%);stroke-opacity:1;stroke-miterlimit:10;" d="M 219.53125 79.699219 L 228.757812 62.945312 "/>
<path style="fill:none;stroke-width:1.2;stroke-linecap:butt;stroke-linejoin:miter;stroke:rgb(0%,0%,0%);stroke-opacity:1;stroke-miterlimit:10;" d="M 236.457031 124.355469 L 223.378906 110.402344 "/>
<path style="fill:none;stroke-width:1.2;stroke-linecap:butt;stroke-linejoin:miter;stroke:rgb(0%,0%,100%);stroke-opacity:1;stroke-miterlimit:10;" d="M 223.378906 110.402344 L 210.300781 96.449219 "/>
<path style=" stroke:none;fill-rule:nonzero;fill:rgb(100%,100%,100%);fill-opacity:1;" d="M 204.300781 86.949219 L 216.300781 86.949219 L 216.300781 105.949219 L 204.300781 105.949219 Z M 204.300781 86.949219 "/>
<g style="fill:rgb(0%,0%,100%);fill-opacity:1;">
  <use xlink:href="#glyph0-2" x="204.300781" y="101.800781"/>
</g>
<path style="fill:none;stroke-width:1.2;stroke-linecap:butt;stroke-linejoin:miter;stroke:rgb(0%,0%,0%);stroke-opacity:1;stroke-miterlimit:10;" d="M 228.757812 62.945312 L 247.542969 66.550781 "/>
<path style="fill:none;stroke-width:1.2;stroke-linecap:butt;stroke-linejoin:miter;stroke:rgb(0%,0%,100%);stroke-opacity:1;stroke-miterlimit:10;" d="M 247.542969 66.550781 L 266.324219 70.152344 "/>
<path style="fill:none;stroke-width:1.2;stroke-linecap:butt;stroke-linejoin:miter;stroke:rgb(0%,0%,0%);stroke-opacity:1;stroke-miterlimit:10;" d="M 230.820312 72.507812 L 245.847656 75.386719 "/>
<path style="fill:none;stroke-width:1.2;stroke-linecap:butt;stroke-linejoin:miter;stroke:rgb(0%,0%,100%);stroke-opacity:1;stroke-miterlimit:10;" d="M 245.847656 75.386719 L 260.875 78.269531 "/>
<path style="fill:none;stroke-width:1.2;stroke-linecap:butt;stroke-linejoin:miter;stroke:rgb(0%,0%,100%);stroke-opacity:1;stroke-miterlimit:10;" d="M 266.324219 70.152344 L 271.082031 108.105469 "/>
<path style=" stroke:none;fill-rule:nonzero;fill:rgb(100%,100%,100%);fill-opacity:1;" d="M 260.324219 60.652344 L 272.324219 60.652344 L 272.324219 79.652344 L 260.324219 79.652344 Z M 260.324219 60.652344 "/>
<g style="fill:rgb(0%,0%,100%);fill-opacity:1;">
  <use xlink:href="#glyph0-2" x="260.324219" y="75.503906"/>
</g>
<path style="fill:none;stroke-width:1.2;stroke-linecap:butt;stroke-linejoin:miter;stroke:rgb(0%,0%,100%);stroke-opacity:1;stroke-miterlimit:10;" d="M 271.082031 108.105469 L 253.769531 116.230469 "/>
<path style="fill:none;stroke-width:1.2;stroke-linecap:butt;stroke-linejoin:miter;stroke:rgb(0%,0%,0%);stroke-opacity:1;stroke-miterlimit:10;" d="M 253.769531 116.230469 L 236.457031 124.355469 "/>
<path style="fill:none;stroke-width:1.2;stroke-linecap:butt;stroke-linejoin:miter;stroke:rgb(0%,0%,100%);stroke-opacity:1;stroke-miterlimit:10;" d="M 263.796875 101.582031 L 249.945312 108.082031 "/>
<path style="fill:none;stroke-width:1.2;stroke-linecap:butt;stroke-linejoin:miter;stroke:rgb(0%,0%,0%);stroke-opacity:1;stroke-miterlimit:10;" d="M 249.945312 108.082031 L 236.09375 114.585938 "/>
<path style=" stroke:none;fill-rule:nonzero;fill:rgb(100%,100%,100%);fill-opacity:1;" d="M 265.082031 98.605469 L 277.082031 98.605469 L 277.082031 117.605469 L 265.082031 117.605469 Z M 265.082031 98.605469 "/>
<g style="fill:rgb(0%,0%,100%);fill-opacity:1;">
  <use xlink:href="#glyph0-2" x="265.082031" y="113.457031"/>
</g>
<path style="fill:none;stroke-width:1.2;stroke-linecap:butt;stroke-linejoin:miter;stroke:rgb(0%,0%,0%);stroke-opacity:1;stroke-miterlimit:10;" d="M 236.457031 124.355469 L 229.253906 161.921875 "/>
<path style="fill:none;stroke-width:1.2;stroke-linecap:butt;stroke-linejoin:miter;stroke:rgb(0%,0%,0%);stroke-opacity:1;stroke-miterlimit:10;" d="M 229.253906 161.921875 L 193.117188 174.464844 "/>
<path style="fill:none;stroke-width:1.2;stroke-linecap:butt;stroke-linejoin:miter;stroke:rgb(0%,0%,0%);stroke-opacity:1;stroke-miterlimit:10;" d="M 228.589844 171.679688 L 199.683594 181.714844 "/>
<path style="fill:none;stroke-width:1.2;stroke-linecap:butt;stroke-linejoin:miter;stroke:rgb(0%,0%,0%);stroke-opacity:1;stroke-miterlimit:10;" d="M 258.183594 186.945312 L 229.253906 161.921875 "/>
<path style="fill:none;stroke-width:1.2;stroke-linecap:butt;stroke-linejoin:miter;stroke:rgb(0%,0%,0%);stroke-opacity:1;stroke-miterlimit:10;" d="M 193.117188 174.464844 L 185.914062 212.03125 "/>
<path style="fill:none;stroke-width:1.2;stroke-linecap:butt;stroke-linejoin:miter;stroke:rgb(0%,0%,0%);stroke-opacity:1;stroke-miterlimit:10;" d="M 185.914062 212.03125 L 214.84375 237.054688 "/>
<path style="fill:none;stroke-width:1.2;stroke-linecap:butt;stroke-linejoin:miter;stroke:rgb(0%,0%,0%);stroke-opacity:1;stroke-miterlimit:10;" d="M 194.695312 207.726562 L 217.839844 227.742188 "/>
<path style="fill:none;stroke-width:1.2;stroke-linecap:butt;stroke-linejoin:miter;stroke:rgb(0%,0%,0%);stroke-opacity:1;stroke-miterlimit:10;" d="M 185.914062 212.03125 L 149.777344 224.574219 "/>
<path style="fill:none;stroke-width:1.2;stroke-linecap:butt;stroke-linejoin:miter;stroke:rgb(0%,0%,0%);stroke-opacity:1;stroke-miterlimit:10;" d="M 214.84375 237.054688 L 250.980469 224.507812 "/>
<path style="fill:none;stroke-width:1.2;stroke-linecap:butt;stroke-linejoin:miter;stroke:rgb(0%,0%,0%);stroke-opacity:1;stroke-miterlimit:10;" d="M 250.980469 224.507812 L 258.183594 186.945312 "/>
<path style="fill:none;stroke-width:1.2;stroke-linecap:butt;stroke-linejoin:miter;stroke:rgb(0%,0%,0%);stroke-opacity:1;stroke-miterlimit:10;" d="M 242.859375 219.058594 L 248.625 189.003906 "/>
<path style="fill:none;stroke-width:1.2;stroke-linecap:butt;stroke-linejoin:miter;stroke:rgb(0%,0%,0%);stroke-opacity:1;stroke-miterlimit:10;" d="M 149.25 70.714844 L 111.296875 75.472656 "/>
<path style="fill:none;stroke-width:1.2;stroke-linecap:butt;stroke-linejoin:miter;stroke:rgb(0%,0%,0%);stroke-opacity:1;stroke-miterlimit:10;" d="M 111.296875 75.472656 L 96.441406 110.71875 "/>
<path style="fill:none;stroke-width:1.2;stroke-linecap:butt;stroke-linejoin:miter;stroke:rgb(0%,0%,0%);stroke-opacity:1;stroke-miterlimit:10;" d="M 118.105469 82.492188 L 106.21875 110.691406 "/>
<path style="fill:none;stroke-width:1.2;stroke-linecap:butt;stroke-linejoin:miter;stroke:rgb(0%,0%,0%);stroke-opacity:1;stroke-miterlimit:10;" d="M 96.441406 110.71875 L 78.375 116.992188 "/>
<path style="fill:none;stroke-width:1.2;stroke-linecap:butt;stroke-linejoin:miter;stroke:rgb(0%,0%,100%);stroke-opacity:1;stroke-miterlimit:10;" d="M 78.375 116.992188 L 60.304688 123.261719 "/>
<path style="fill:none;stroke-width:1.2;stroke-linecap:butt;stroke-linejoin:miter;stroke:rgb(0%,0%,100%);stroke-opacity:1;stroke-miterlimit:10;" d="M 60.304688 123.261719 L 44.613281 112.332031 "/>
<path style="fill:none;stroke-width:1.2;stroke-linecap:butt;stroke-linejoin:miter;stroke:rgb(0%,0%,0%);stroke-opacity:1;stroke-miterlimit:10;" d="M 44.613281 112.332031 L 28.917969 101.402344 "/>
<path style=" stroke:none;fill-rule:nonzero;fill:rgb(100%,100%,100%);fill-opacity:1;" d="M 54.304688 113.761719 L 66.304688 113.761719 L 66.304688 132.761719 L 54.304688 132.761719 Z M 54.304688 113.761719 "/>
<g style="fill:rgb(0%,0%,100%);fill-opacity:1;">
  <use xlink:href="#glyph0-2" x="54.304688" y="128.613281"/>
</g>
</g>
</svg>

<svg xmlns="http://www.w3.org/2000/svg" xmlns:xlink="http://www.w3.org/1999/xlink" width="300pt" height="300pt" viewBox="0 0 300 300"><defs><symbol overflow="visible"><path d="M.797 2.828v-14.11h8V2.83zm.906-.89h6.203v-12.33H1.703zm0 0"/></symbol><symbol overflow="visible" id="a"><path d="M6.313-10.594c-1.15 0-2.06.43-2.735 1.28-.68.857-1.015 2.017-1.015 3.486 0 1.47.335 2.633 1.015 3.484.676.856 1.586 1.28 2.735 1.28 1.144.002 2.05-.424 2.718-1.28.665-.85 1-2.015 1-3.484 0-1.47-.335-2.63-1-3.484-.667-.852-1.573-1.282-2.717-1.282zm0-1.28c1.632 0 2.94.546 3.92 1.64.978 1.093 1.47 2.562 1.47 4.406 0 1.844-.492 3.32-1.47 4.422-.98 1.093-2.288 1.64-3.92 1.64-1.65 0-2.96-.546-3.938-1.64-.98-1.102-1.47-2.578-1.47-4.422 0-1.844.49-3.313 1.47-4.406.977-1.094 2.29-1.64 3.938-1.64zm0 0"/></symbol><symbol overflow="visible" id="b"><path d="M1.578-11.672h2.125l5.172 9.766v-9.766h1.53V0H8.282L3.11-9.766V0H1.577zm0 0"/></symbol></defs><g><path fill="#fff" d="M0 0h300v300H0z"/><path d="M33.297 188.188l15.246-11.547" stroke-width="1.2" stroke="#f00" stroke-miterlimit="10" fill="none"/><path d="M48.543 176.64l15.242-11.546" stroke-width="1.2" stroke="#000" stroke-miterlimit="10" fill="none"/><path d="M27.863 181.016l15.242-11.55" stroke-width="1.2" stroke="#f00" stroke-miterlimit="10" fill="none"/><path d="M43.105 169.465l15.247-11.547" stroke-width="1.2" stroke="#000" stroke-miterlimit="10" fill="none"/><path d="M17.578 175.102h13v19h-13zm0 0" fill="#fff"/><use xlink:href="#a" x="17.578" y="189.953" fill="#f00"/><path d="M61.07 161.504l18.3 5.547" stroke-width="1.2" stroke="#000" stroke-miterlimit="10" fill="none"/><path d="M79.37 167.05l18.306 5.548M60.305 123.262l.383 19.12" stroke-width="1.2" stroke="#00f" stroke-miterlimit="10" fill="none"/><path d="M60.688 142.383l.382 19.12" stroke-width="1.2" stroke="#000" stroke-miterlimit="10" fill="none"/><path d="M97.676 172.598l10.93-15.696" stroke-width="1.2" stroke="#00f" stroke-miterlimit="10" fill="none"/><path d="M108.605 156.902l10.93-15.695" stroke-width="1.2" stroke="#000" stroke-miterlimit="10" fill="none"/><path d="M97.676 172.598l6.273 18.066" stroke-width="1.2" stroke="#00f" stroke-miterlimit="10" fill="none"/><path d="M103.95 190.664l6.27 18.066" stroke-width="1.2" stroke="#000" stroke-miterlimit="10" fill="none"/><path d="M91.676 163.098h12v19h-12zm0 0" fill="#fff"/><use xlink:href="#b" x="91.676" y="177.949" fill="#00f"/><path d="M119.535 141.207l37.953-4.754M122.21 131.8l30.364-3.804M96.44 110.72l23.095 30.487M157.488 136.453l14.86-35.25M172.348 101.203l18.976-2.375" stroke-width="1.2" stroke="#000" stroke-miterlimit="10" fill="none"/><path d="M191.324 98.828l18.977-2.38" stroke-width="1.2" stroke="#00f" stroke-miterlimit="10" fill="none"/><path d="M172.348 101.203L149.25 70.715M162.863 103.59L144.387 79.2" stroke-width="1.2" stroke="#000" stroke-miterlimit="10" fill="none"/><path d="M210.3 96.45l9.23-16.75" stroke-width="1.2" stroke="#00f" stroke-miterlimit="10" fill="none"/><path d="M219.53 79.7l9.228-16.755M236.457 124.355l-13.078-13.953" stroke-width="1.2" stroke="#000" stroke-miterlimit="10" fill="none"/><path d="M223.38 110.402L210.3 96.45" stroke-width="1.2" stroke="#00f" stroke-miterlimit="10" fill="none"/><path d="M204.3 86.95h12v19h-12zm0 0" fill="#fff"/><use xlink:href="#b" x="204.301" y="101.801" fill="#00f"/><path d="M228.758 62.945l18.785 3.606" stroke-width="1.2" stroke="#000" stroke-miterlimit="10" fill="none"/><path d="M247.543 66.55l18.78 3.602" stroke-width="1.2" stroke="#00f" stroke-miterlimit="10" fill="none"/><path d="M230.82 72.508l15.028 2.88" stroke-width="1.2" stroke="#000" stroke-miterlimit="10" fill="none"/><path d="M245.848 75.387l15.027 2.883M266.324 70.152l4.758 37.953" stroke-width="1.2" stroke="#00f" stroke-miterlimit="10" fill="none"/><path d="M260.324 60.652h12v19h-12zm0 0" fill="#fff"/><use xlink:href="#b" x="260.324" y="75.504" fill="#00f"/><path d="M271.082 108.105l-17.312 8.125" stroke-width="1.2" stroke="#00f" stroke-miterlimit="10" fill="none"/><path d="M253.77 116.23l-17.313 8.125" stroke-width="1.2" stroke="#000" stroke-miterlimit="10" fill="none"/><path d="M263.797 101.582l-13.852 6.5" stroke-width="1.2" stroke="#00f" stroke-miterlimit="10" fill="none"/><path d="M249.945 108.082l-13.85 6.504" stroke-width="1.2" stroke="#000" stroke-miterlimit="10" fill="none"/><path d="M265.082 98.605h12v19h-12zm0 0" fill="#fff"/><use xlink:href="#b" x="265.082" y="113.457" fill="#00f"/><path d="M236.457 124.355l-7.203 37.567M229.254 161.922l-36.137 12.543M228.59 171.68l-28.906 10.035M258.184 186.945l-28.93-25.023M193.117 174.465l-7.203 37.566M185.914 212.03l28.93 25.025M194.695 207.727l23.145 20.015M185.914 212.03l-36.137 12.544M214.844 237.055l36.136-12.547M250.98 224.508l7.204-37.563M242.86 219.06l5.765-30.056M149.25 70.715l-37.953 4.758M111.297 75.473L96.44 110.72M118.105 82.492l-11.886 28.2M96.44 110.72l-18.065 6.272" stroke-width="1.2" stroke="#000" stroke-miterlimit="10" fill="none"/><path d="M78.375 116.992l-18.07 6.27M60.305 123.262l-15.692-10.93" stroke-width="1.2" stroke="#00f" stroke-miterlimit="10" fill="none"/><path d="M44.613 112.332l-15.695-10.93" stroke-width="1.2" stroke="#000" stroke-miterlimit="10" fill="none"/><path d="M54.305 113.762h12v19h-12zm0 0" fill="#fff"/><use xlink:href="#b" x="54.305" y="128.613" fill="#00f"/></g></svg>
